X:1
T:Snar å ta åt
R:pols
Z:Etter Harald Gullikstad - Seattle, March 1989
M:3/4
L:1/16
Q:1/4=135
K:D
P:A
|:  "D"D3F {F}A4 A3B|([G2B2][F2A2]) ({F}A8)|({A}[D3A3])([Dd] B[G3B3]) "A"[A,3E3][Ec]\
| ([E3c3][Bc]) "D"([D3d3]B A3[FA]\
| | "D"D3F {F}A4 A3B|([G2B2][F2A2]) ({F}A8)|({A}[D3A3])([Dd] B[G3B3]) "A"[A,3E3][Ec]\
| ([E3c3][Bc]) "D"({c}[D8d8] :|
P:B
|:"D"{f}([A3a3]f) ([A2g2]e2) [A3f3]d|(["G"D3d3]B) (B2[G2B2]) [G3B3][FA]|["D"F3A3]([Dd] B[G3"Em"B3]) "A"[A,3E3][Ec]\
| ([E3c3][Bc] ({c}e8)\
| "D"{f}([A3a3]f) ([A2g2]e2) [A3f3]d|(["G"D3d3]B) (B2[G2B2]) [G3B3][FA]|["D"F3A3]([Dd] B[G3"Em"B3]) "A"[A,3E3][Ec]\
| ([E3c3][Bc] "D"({c}[D8d8]):||


